X: 43379
T: Wren, The
R: hornpipe
M: 4/4
K: Eminor
D2|(3EFG AB {d}cBcd|(3efg ed cBcd|ecAc {Bc}BAGB|AGEF GEDG|
(3EFG AB {d}cBcd|(3efg ed cBcd|ecAc BAGB|A2AA A2:|
(3efg|a2{b}ag efge|dedc Bcdf|ecAc BAGB|AGEF GED2|
a2{b}ag efge|dedc Bcde|eAAc {d}BAGB|A2AA A2 (3efg|
a2ag efge|dedc Bcde|ecAc {Bc}BAGB|AGEF GEDG|
(3EFG AB cBcd|(3efg ed cBcd|ecAc BAGB|A2AA A2||

